!!!COM: Ockeghem, Johannes
!!!CDT: ~1425-1497/02/06
!!!OTL: Baisies moy
!!!AGN: Song; Chanson; Rondeau
!!!SCT: Ock3002
!!!SCA: Ock3002
!!!voices: 3
**kern	**text	**text	**text	**kern	**text	**text	**text	**kern	**text	**text	**text
*staff3	*staff3	*	*	*staff2	*staff2	*	*	*staff1	*staff1	*	*
*Ivox	*	*	*	*Ivox	*	*	*	*Ivox	*	*	*
*I"Contratenor	*	*	*	*I"Tenor	*	*	*	*I"Discantus	*	*	*
*I'Ct	*	*	*	*I'T	*	*	*	*I'D	*	*	*
*clefF4	*	*	*	*clefGv2	*	*	*	*clefG2	*	*	*
*k[b-]	*	*	*	*k[b-]	*	*	*	*k[b-]	*	*	*
*M2/1	*	*	*	*M2/1	*	*	*	*M2/1	*	*	*
*met(C|)	*	*	*	*met(C|)	*	*	*	*met(C|)	*	*	*
=1-	=1-	=	=	=1-	=1-	=	=	=1-	=1-	=	=
!!LO:TX:X=-34:Z=12:t=Form&colon; rondeau
!!LO:TX:X=-34:Z=32:t=Only the refrain text is extant; completion by Fabrice Fitch
0GG	Bai-	Ja	Si	0G	Bai-	Ja	Si	0r	.	.	.
=2	=2	=	=	=2	=2	=	=	=2	=2	=	=
1.D	-sies	nul-	vous	1.B-	-sies	nul-	vous	0r	.	.	.
2E\	.	.	.	2c\	.	.	.	.	.	.	.
=3	=3	=	=	=3	=3	=	=	=3	=3	=	=
1F	moy	-le o-	.	1d	moy	-le o-	.	0r	.	.	.
1C	dont	-choi-	su-	1e-i	dont	-choi-	su-	.	.	.	.
=4	=4	=	=	=4	=4	=	=	=4	=4	=	=
[0F	fort,	-son	-ply-	1c	fort,	-son	-ply-	0r	.	.	.
.	.	.	.	1f	ma	de	-e en	.	.	.	.
=5	=5	=	=	=5	=5	=	=	=5	=5	=	=
1F]	.	.	.	1f	mais-	tris-	grant	0r	.	.	.
1C	ma	de	-e en	[1e-i	-tres-	-tes-	des-	.	.	.	.
=6	=6	=	=	=6	=6	=	=	=6	=6	=	=
1F	mais-	tris-	grant	2e-\]	.	.	.	0r	.	.	.
.	.	.	.	2d\	.	.	.	.	.	.	.
1G	.	.	des-	[1d	.	.	-tres-	.	.	.	.
=7	=7	=	=	=7	=7	=	=	=7	=7	=	=
0E-i	-tres-	-tes-	-tres-	2d\]	.	.	.	0r	.	.	.
.	.	.	.	4c\	.	.	.	.	.	.	.
.	.	.	.	4B-\	.	.	.	.	.	.	.
.	.	.	.	1c	.	.	.	.	.	.	.
=8	=8	=	=	=8	=8	=	=	=8	=8	=	=
0D	-se,	-se,	-se,	[0d	-se,	-se,	-se,	0d	Bai-	Ja	Si
=9	=9	=	=	=9	=9	=	=	=9	=9	=	=
1.D	Bai-	Ja	Si	0d_	.	.	.	1.f	-sies	nul-	vous
2E\	-sies	nul-	.	.	.	.	.	2g/	.	.	.
=10	=10	=	=	=10	=10	=	=	=10	=10	=	=
1F	moy	-le o-	vous	0d]	.	.	.	1a	moy	-le o-	.
1G	dont	-choi-	su-	.	.	.	.	1b-	dont	-choi-	su-
=11	=11	=	=	=11	=11	=	=	=11	=11	=	=
0C	fort,	-son,	-plye,	1.e-	ma	de	grant	1g	fort,	-son	-ply-
.	.	.	.	.	.	.	.	1cc	ma	de	-e en
.	.	.	.	2c\	.	.	.	.	.	.	.
=12	=12	=	=	=12	=12	=	=	=12	=12	=	=
0r	.	.	.	1e-i	mais-	tris-	.	1cc	mais-	tris-	grant
.	.	.	.	1d	-tres-	-tes-	des-	[1b-	-tres-	-tes-	des-
=13	=13	=	=	=13	=13	=	=	=13	=13	=	=
0r	.	.	.	1A	.	.	-tres-	2b-\]	.	.	.
.	.	.	.	.	.	.	.	2a/	.	.	.
.	.	.	.	1c	.	.	.	[1a	.	.	-tres-
=14	=14	=	=	=14	=14	=	=	=14	=14	=	=
1r	.	.	.	0B-	-se,	-se,	-se,	2a/]	.	.	.
.	.	.	.	.	.	.	.	4g/	.	.	.
.	.	.	.	.	.	.	.	4f/	.	.	.
1GG	A-	Ne	Moy	.	.	.	.	1g	.	.	.
=15	=15	=	=	=15	=15	=	=	=15	=15	=	=
1D	-col-	vous	ga-	1r	.	.	.	0a	-se,	-se,	-se,
2C/	.	.	.	1A	A-	Ne	Moy	.	.	.	.
[2D\	.	.	.	.	.	.	.	.	.	.	.
=16	=16	=	=	=16	=16	=	=	=16	=16	=	=
2D\]	.	.	.	1B-	-col-	vous	ga-	1r	.	.	.
2BB-/	.	.	.	.	.	.	.	.	.	.	.
1AA	-les	don-	-ran-	1c	-les	don-	-ran-	1a	A-	Ne	Moy
=17	=17	=	=	=17	=17	=	=	=17	=17	=	=
1GG	moy,	-nay	-tir	1d	moy,	-nay	-tir	1b-	-col-	vous	ga-
1C	.	.	.	1e	.	.	.	1cc	-les	don-	-ran-
=18	=18	=	=	=18	=18	=	=	=18	=18	=	=
2BB-/	.	.	.	2.f\	.	.	.	1dd	moy,	-nay	-tir
2F\	.	.	.	.	.	.	.	.	.	.	.
.	.	.	.	4d\	.	.	.	.	.	.	.
2G\	.	.	.	4e\	.	.	.	2b-\	mon	si	de
.	.	.	.	4d\	.	.	.	.	.	.	.
2B-\	.	.	.	[2g\	mon	si	de	2g/	.	.	.
=19	=19	=	=	=19	=19	=	=	=19	=19	=	=
1A	mon	si	de	2g\]	.	.	.	1a	.	.	.
.	.	.	.	2f#i\	.	.	.	.	.	.	.
2G\	vray	Dieu	tel	1g	vray	Dieu	tel	1b-	vray	Dieu	tel
2GG/	.	.	.	.	.	.	.	.	.	.	.
=20	=20	=	=	=20	=20	=	=	=20	=20	=	=
2r	.	.	.	2f\	re-	me	de-	2a/	re-	me	de-
2AA/	re-	me	de-	2e\	.	.	.	2cc\	.	.	.
2BB-/	.	.	.	2.d\	-fu-	ju-	-lu-	2b-\	-fu-	ju-	-lu-
2C/	.	.	.	.	.	.	.	[2a/	.	.	.
.	.	.	.	4c\	.	.	.	.	.	.	.
=21	=21	=	=	=21	=21	=	=	=21	=21	=	=
1D	-fu-	ju-	-lu-	2A/	.	.	.	2a/]	.	.	.
.	.	.	.	1d	.	.	.	4g/	.	.	.
.	.	.	.	.	.	.	.	4f/	.	.	.
1AA	-ge,	-ge,	-ge,	.	.	.	.	2.e/	.	.	.
.	.	.	.	2c#i\	.	.	.	.	.	.	.
.	.	.	.	.	.	.	.	8d/L	.	.	.
.	.	.	.	.	.	.	.	8e/J	.	.	.
=22	=22	=	=	=22	=22	=	=	=22	=22	=	=
2r	.	.	.	2d\	.	.	.	2.f/	.	.	.
1D	re-	me	de-	2B-\	.	.	.	.	.	.	.
.	.	.	.	.	.	.	.	4e/	.	.	.
.	.	.	.	1A	-ge,	-ge,	-ge,	2f/	.	.	.
[2C/	-fu-	ju-	-lu-	.	.	.	.	[2e/	.	.	.
=23	=23	=	=	=23	=23	=	=	=23	=23	=	=
2C/]	.	.	.	1A	re-	me	de-	2e/]	.	.	.
4BB-/	.	.	.	.	.	.	.	4d/	.	.	.
4AA/	.	.	.	.	.	.	.	4c/	.	.	.
2BB-/	.	.	.	1G	.	.	.	2.B-/	.	.	.
2GG/	.	.	.	.	.	.	.	.	.	.	.
.	.	.	.	.	.	.	.	4A/	.	.	.
=24	=24	=	=	=24	=24	=	=	=24	=24	=	=
1.FF	.	.	.	2.A/	-fu-	ju-	-lu-	2.c/	.	.	.
.	.	.	.	4G/	.	.	.	4d/	.	.	.
.	.	.	.	2A/	.	.	.	2f/	.	.	.
[2C/	.	.	.	[2G/	.	.	.	[2e/	.	.	.
=25	=25	=	=	=25	=25	=	=	=25	=25	=	=
4C/]	.	.	.	4G/]	.	.	.	2e/]	.	.	.
4BB-/	.	.	.	4D/	.	.	.	.	.	.	.
2D\	.	.	.	2F/	.	.	.	1d	.	.	.
1AA	-ge,	-ge,	-ge,	1E	.	.	.	.	.	.	.
.	.	.	.	.	.	.	.	2c#i/	.	.	.
=26	=26	=	=	=26	=26	=	=	=26	=26	=	=
2r	.	.	.	1D	-ge,	-ge,	-ge,	2d/	.	.	.
1D	re-	me	de-	.	.	.	.	2.f/	.	.	.
.	.	.	.	2r	.	.	.	.	.	.	.
.	.	.	.	.	.	.	.	4g/	.	.	.
[2F\	.	.	.	[2d\	re-	me	de-	[2a/	.	.	.
=27	=27	=	=	=27	=27	=	=	=27	=27	=	=
2F\]	.	.	.	2d\]	.	.	.	4a/]	.	.	.
.	.	.	.	.	.	.	.	4b-\	.	.	.
2E\	.	.	.	2c\	.	.	.	2.cc\	.	.	.
1C	.	ju-	.	1e-	.	ju-	.	.	.	.	.
.	.	.	.	.	.	.	.	4b-\	.	.	.
.	.	.	.	.	.	.	.	4a/	.	.	.
.	.	.	.	.	.	.	.	4g/	.	.	.
=28	=28	=	=	=28	=28	=	=	=28	=28	=	=
0DN	-fu-	-ge,&	-lu-	2.d\N	-fu-	-ge,&	-lu-	[0f#N	-ge,	-ge,&	-ge,
.	.	.	.	4c\	.	.	.	.	.	.	.
.	.	.	.	2A/	.	.	.	.	.	.	.
.	.	.	.	2B-\	.	.	.	.	.	.	.
=29	=29	=	=	=29	=29	=	=	=29	=29	=	=
1D	-ge,	.	-ge,	2A/	.	.	.	0f#]	.	.	.
.	.	.	.	1B-	.	.	.	.	.	.	.
2.BB-/	re-	.	de-	.	.	.	.	.	.	.	.
.	.	.	.	[2F/	.	.	.	.	.	.	.
4C/	.	.	.	.	.	.	.	.	.	.	.
=30	=30	=	=	=30	=30	=	=	=30	=30	=	=
2.D\	-fu-	.	-lu-	2F/]	.	.	.	0r	.	.	.
.	.	.	.	2B-\	.	.	.	.	.	.	.
4BB-/	.	.	.	.	.	.	.	.	.	.	.
2AA/	.	.	.	2c\	.	.	.	.	.	.	.
2GG/	.	.	.	2B-\	.	.	.	.	.	.	.
=31	=31	=	=	=31	=31	=	=	=31	=31	=	=
2G\	.	.	.	2G/	.	.	.	0r	.	.	.
1G	.	.	.	2B-\	.	.	.	.	.	.	.
.	.	.	.	1A	.	.	.	.	.	.	.
2F#i\	.	.	.	.	.	.	.	.	.	.	.
=32	=32	=	=	=32	=32	=	=	=32	=32	=	=
0G	-ge,	.	-ge,	0G	-ge,	.	-ge,	0b-	Puis	.	Car
=33	=33	=	=	=33	=33	=	=	=33	=33	=	=
1D	.	.	.	1r	.	.	.	1b-	que	.	nul
1D	Puis	.	Car	1F	Puis	.	Car	1a	je	.	ne
=34	=34	=	=	=34	=34	=	=	=34	=34	=	=
1.E-	que	.	nul	1.G	que	.	nul	1.g	vous	.	trou-
4D\	je	.	ne	2A/	je	.	ne	4f/	.	.	.
4C/	.	.	.	.	.	.	.	4e/	.	.	.
=35	=35	=	=	=35	=35	=	=	=35	=35	=	=
1BB-	vous	.	trou-	1B-	vous	.	trou-	1d	.	.	.
2C/	fais	.	-ve	1A	.	.	.	2e/	fais	.	-ve
[2D\	.	.	.	.	.	.	.	[2f/	.	.	.
=36	=36	=	=	=36	=36	=	=	=36	=36	=	=
2D\]	.	.	.	1B-	fais	.	-ve	2f/]	.	.	.
2E-i\	.	.	.	.	.	.	.	1B-	.	.	.
2D\	.	.	.	1BB-	.	.	.	.	.	.	.
2BB-/	.	.	.	.	.	.	.	2f/	mon	.	qui
=37	=37	=	=	=37	=37	=	=	=37	=37	=	=
1AA	mon	.	qui	1r	.	.	.	2e/	.	.	.
.	.	.	.	.	.	.	.	1f	seul	.	n'ad-
1BB-	seul	.	n'ad-	1B-	mon	.	qui	.	.	.	.
.	.	.	.	.	.	.	.	2d/	.	.	.
=38	=38	=	=	=38	=38	=	=	=38	=38	=	=
1FF	.	.	.	1A	seul	.	n'ad-	1c	.	.	.
1BB-	ju-	.	-ju-	1B-	ju-	.	-ju-	2B-/	ju-	.	-ju-
.	.	.	.	.	.	.	.	2f/	.	.	.
=39	=39	=	=	=39	=39	=	=	=39	=39	=	=
2GG/	.	.	.	1BB-	.	.	.	2g/	.	.	.
2AA/	.	.	.	.	.	.	.	1f	.	.	.
1BB-	.	.	.	2.B-\	.	.	.	.	.	.	.
.	.	.	.	.	.	.	.	[2b-\	.	.	.
.	.	.	.	4c\	.	.	.	.	.	.	.
=40	=40	=	=	=40	=40	=	=	=40	=40	=	=
1BB-	-ge,	.	-ge,	2d\	.	.	.	2b-\]	.	.	.
.	.	.	.	2B-\	.	.	.	4a/	.	.	.
.	.	.	.	.	.	.	.	4g/	.	.	.
1F	.	.	n'a-	1c	.	.	.	1a	.	.	.
=41	=41	=	=	=41	=41	=	=	=41	=41	=	=
2r	.	.	.	0B-	-ge,	.	-ge,	1.b-	.	.	.
2.G\	ju-	.	-dju-	.	.	.	.	.	.	.	.
4F\	.	.	.	.	.	.	.	.	.	.	.
2E\	.	.	.	.	.	.	.	2g/	.	.	.
=42	=42	=	=	=42	=42	=	=	=42	=42	=	=
[0D	-ge,	.	-ge,	1r	.	.	.	0a	-ge,	.	-ge,
.	.	.	.	1f	Pour	.	Qu'au-	.	.	.	.
=43	=43	=	=	=43	=43	=	=	=43	=43	=	=
1D]	.	.	.	1f	pu-	.	-tre-	2r	.	.	.
.	.	.	.	.	.	.	.	1dd	Pour	.	Qu'au-
1r	.	.	.	1f	-gnir	.	-ment	.	.	.	.
.	.	.	.	.	.	.	.	2cc\	.	.	.
=44	=44	=	=	=44	=44	=	=	=44	=44	=	=
0D	Pour	.	Qu'au-	0f	mon	.	me	2dd\	.	.	.
.	.	.	.	.	.	.	.	4cc\	.	.	.
.	.	.	.	.	.	.	.	4b-\	.	.	.
.	.	.	.	.	.	.	.	2.a/	.	.	.
.	.	.	.	.	.	.	.	4g/	.	.	.
=45	=45	=	=	=45	=45	=	=	=45	=45	=	=
1GG	pu-	.	-tre-	1g	.	.	fe-	1b-	pu-	.	-tre-
1D	-gnir	.	-ment	2.f\	.	.	.	[1a	-gnir	.	-ment
.	.	.	.	4e\	.	.	.	.	.	.	.
=46	=46	=	=	=46	=46	=	=	=46	=46	=	=
2.F\	mon	.	me	2c\	.	.	.	2a/]	.	.	.
.	.	.	.	1d	.	.	.	4g/	.	.	.
4G\	.	.	.	.	.	.	.	4f/	.	.	.
1A	.	.	.	.	.	.	.	1e	mon	.	.
.	.	.	.	2c#i\	.	.	.	.	.	.	.
=47	=47	=	=	=47	=47	=	=	=47	=47	=	=
2r	.	.	.	0d	cuer,	.	-rez	2d/	cuer,	.	fe-
1B-	cuer,	.	fe-	.	.	.	.	2.f/	.	.	-rez
.	.	.	.	.	.	.	.	8g/L	.	.	.
.	.	.	.	.	.	.	.	8a/J	.	.	.
2G\	.	.	.	.	.	.	.	2b-\	.	.	.
=48	=48	=	=	=48	=48	=	=	=48	=48	=	=
2F\	.	.	.	2r	.	.	.	2a/	.	.	.
2BB-/	.	.	.	1d	mon	.	me	2b-\	.	.	.
1F	.	.	.	.	.	.	.	4a/	.	.	.
.	.	.	.	.	.	.	.	4b-\	.	.	.
.	.	.	.	2c\	.	.	.	2cc\	.	.	.
=49	=49	=	=	=49	=49	=	=	=49	=49	=	=
1G	.	.	-rez	2G/	.	.	.	4b-\	.	.	.
.	.	.	.	.	.	.	.	4g/	.	.	.
.	.	.	.	2B-\	.	.	.	1g	.	.	.
1D	.	.	.	1A	.	.	fe-	.	.	.	.
.	.	.	.	.	.	.	.	2f#i/	.	.	.
=50	=50	=	=	=50	=50	=	=	=50	=50	=	=
2r	.	.	.	0G	cuer,	.	-rez,	2.g/	.	.	.
2.E\	mon	.	fe-	.	.	.	.	.	.	.	.
.	.	.	.	.	.	.	.	4d/	.	.	.
.	.	.	.	.	.	.	.	2g/	.	.	.
4F\	.	.	.	.	.	.	.	.	.	.	.
2G\	.	.	.	.	.	.	.	[2b-\	mon	.	fe-
=51	=51	=	=	=51	=51	=	=	=51	=51	=	=
1D	.	.	.	1F	mon	.	fe-	4b-\]	.	.	.
.	.	.	.	.	.	.	.	4cc\	.	.	.
.	.	.	.	.	.	.	.	1dd	.	.	.
1GG	.	.	.	1B-	.	.	.	.	.	.	.
.	.	.	.	.	.	.	.	[2g/	.	.	.
=52	=52	=	=	=52	=52	=	=	=52	=52	=	=
0C	.	.	.	1.c	.	.	-rez	2g/]	.	.	-rez
.	.	.	.	.	.	.	.	2f/	.	.	.
.	.	.	.	.	.	.	.	1e	.	.	.
.	.	.	.	4B-\	.	.	.	.	.	.	.
.	.	.	.	4A/	.	.	.	.	.	.	.
=53	=53	=	=	=53	=53	=	=	=53	=53	=	=
0G	cuer	.	-rez	1B-	cuer	.	.	0d	cuer	.	.
.	.	.	.	2G/	si	.	ru-	.	.	.	.
.	.	.	.	[2G/	vous	.	-des-	.	.	.	.
=54	=54	=	=	=54	=54	=	=	=54	=54	=	=
0C	.	.	.	2G/]	.	.	.	1.g	si	.	ru-
.	.	.	.	4F/	.	.	.	.	.	.	.
.	.	.	.	4E/	.	.	.	.	.	.	.
.	.	.	.	1G	.	.	.	.	.	.	.
.	.	.	.	.	.	.	.	2e/	.	.	.
=55	=55	=	=	=55	=55	=	=	=55	=55	=	=
1.BB-	si	.	ru-	1D	bles-	.	.	1f	.	.	.
.	.	.	.	[1G	.	.	.	2d/	vous	.	.
2GG/	.	.	.	.	.	.	.	[2d/	bles-	.	-des-
=56	=56	=	=	=56	=56	=	=	=56	=56	=	=
2GG/	vous	.	-des-	1G]	.	.	.	2d/]	.	.	.
2EE/	.	.	.	.	.	.	.	4c/	.	.	.
.	.	.	.	.	.	.	.	4B-/	.	.	.
1DD	.	.	.	[1F	.	.	.	2.d-/	.	.	.
.	.	.	.	.	.	.	.	4c/	.	.	.
=57	=57	=	=	=57	=57	=	=	=57	=57	=	=
0DD	bles-	.	.	2F/]	.	.	.	[0Al	-se.	.	-se.
.	.	.	.	2D/	.	.	.	.	.	.	.
.	.	.	.	[1Dl	-se.	.	-se.	.	.	.	.
=58	=58	=	=	=58	=58	=	=	=58	=58	=	=
0Dl	-se.	.	-se.	0D]	.	.	.	0A]	.	.	.
==	==	=	=	==	==	=	=	==	==	=	=
*-	*-	*-	*-	*-	*-	*-	*-	*-	*-	*-	*-
!!!RDF**kern: l=long note in original notation
!!!RDF**kern: i=editorial accidental
!!!RDF**kern: N=signum congruentiae
!!!ENC: Chris Gage 06-13-2012
!!!END: 2012/06/13/
!!!EED: Jesse Rodin
!!!EEV: 2018/01/18/
!!!ONB: Translated from MusicXML and edited on 2018/01/18/ by Craig Sapp
!!muse2ps: C^@{COM}^i2I150v95,95,120z18c140l2650
